svg/building/marina_bay_sand_line.svg

<?xml version="1.0" encoding="UTF-8"?>
<svg width="24px" height="24px" viewBox="0 0 24 24" version="1.1" xmlns="http://www.w3.org/2000/svg" xmlns:xlink="http://www.w3.org/1999/xlink">
    <title>marina_bay_sand_line</title>
    <g id="页面-1" stroke="none" stroke-width="1" fill="none" fill-rule="evenodd">
        <g id="Building" transform="translate(0.000000, -192.000000)">
            <g id="marina_bay_sand_line" transform="translate(0.000000, 192.000000)">
                 <path d="M24,0 L24,24 L0,24 L0,0 L24,0 Z M12.5934901,23.257841 L12.5819402,23.2595131 L12.5108777,23.2950439 L12.4918791,23.2987469 L12.4918791,23.2987469 L12.4767152,23.2950439 L12.4056548,23.2595131 C12.3958229,23.2563662 12.3870493,23.2590235 12.3821421,23.2649074 L12.3780323,23.275831 L12.360941,23.7031097 L12.3658947,23.7234994 L12.3769048,23.7357139 L12.4804777,23.8096931 L12.4953491,23.8136134 L12.4953491,23.8136134 L12.5071152,23.8096931 L12.6106902,23.7357139 L12.6232938,23.7196733 L12.6232938,23.7196733 L12.6266527,23.7031097 L12.609561,23.275831 C12.6075724,23.2657013 12.6010112,23.2592993 12.5934901,23.257841 L12.5934901,23.257841 Z M12.8583906,23.1452862 L12.8445485,23.1473072 L12.6598443,23.2396597 L12.6498822,23.2499052 L12.6498822,23.2499052 L12.6471943,23.2611114 L12.6650943,23.6906389 L12.6699349,23.7034178 L12.6699349,23.7034178 L12.678386,23.7104931 L12.8793402,23.8032389 C12.8914285,23.8068999 12.9022333,23.8029875 12.9078286,23.7952264 L12.9118235,23.7811639 L12.8776777,23.1665331 C12.8752882,23.1545897 12.8674102,23.1470016 12.8583906,23.1452862 L12.8583906,23.1452862 Z M12.1430473,23.1473072 C12.1332178,23.1423925 12.1221763,23.1452606 12.1156365,23.1525954 L12.1099173,23.1665331 L12.0757714,23.7811639 C12.0751323,23.7926639 12.0828099,23.8018602 12.0926481,23.8045676 L12.108256,23.8032389 L12.3092106,23.7104931 L12.3186497,23.7024347 L12.3186497,23.7024347 L12.3225043,23.6906389 L12.340401,23.2611114 L12.337245,23.2485176 L12.337245,23.2485176 L12.3277531,23.2396597 L12.1430473,23.1473072 Z" id="MingCute" fill-rule="nonzero"></path>
                <path d="M10,4.5 C10.3289778,4.5 10.6208988,4.65889383 10.8031418,4.90413059 L10.8662,5 L15.1338,5 C15.2874889,4.73431111 15.5599333,4.5458963 15.8785122,4.50730645 L16,4.5 L19,4.5 C19.3289778,4.5 19.6208988,4.65889383 19.8031418,4.90413059 L19.8662,5 L21,5 C22.0543909,5 22.9181678,5.81587733 22.9945144,6.85073759 L23,7 L23,8 C23,9.05436227 22.18415,9.91816517 21.1492661,9.99451427 L21,10 L21,18 C21.5523,18 22,18.4478 22,19 C22,19.51285 21.613973,19.9355092 21.1166239,19.9932725 L21,20 L4,20 C3.44772,20 3,19.5523 3,19 C3,18.4872429 3.38604429,18.0645041 3.88337975,18.0067289 L4,18 L4.54433,18 C5.386738,16.93992 5.89166884,15.6387164 5.98607929,14.2897295 L6,14 L6,9.93562 C5.5064,9.88116 4.86538,9.77865 4.21265,9.58283 C3.51646,9.37397 2.73474,9.03789 2.11229,8.47768 C1.46119,7.8917 1,7.06955 1,6 C1,5.48717786 1.38603566,5.06451204 1.8833779,5.00673164 L2,5 L6.13378,5 C6.28747778,4.73431111 6.55989951,4.5458963 6.87850132,4.50730645 L7,4.5 L10,4.5 Z M15,10 L12,10 L12,18 L13.5443,18 C14.4469,16.8642 14.9621,15.4516 15,14 L15,10 Z M19,15 L16.9364,15 C16.8144444,15.9536 16.5218222,16.8530765 16.1003221,17.6893695 L15.9363,18 L19,18 L19,15 Z M10,15 L7.93639,15 C7.79916,16.0728 7.44596,17.0771 6.9363,18 L10,18 L10,15 Z M19,10 L17,10 L17,13 L19,13 L19,10 Z M10,10 L8,10 L8,13 L10,13 L10,10 Z M9.13378,6.5 L7.86622,6.5 C7.71252222,6.76568889 7.44010049,6.9541037 7.12149868,6.99269355 L7,7 L3.4602,7 C4.29991067,7.74494 5.65586791,7.96176018 6.76655685,7.99545654 L7.00053,8 L21,8 L21,7 L19,7 C18.6710222,7 18.3791012,6.84110617 18.1968582,6.59586941 L18.1338,6.5 L16.8662,6.5 C16.7125111,6.76568889 16.4400667,6.9541037 16.1214878,6.99269355 L16,7 L10,7 C9.67098667,7 9.37908543,6.84110617 9.19684016,6.59586941 L9.13378,6.5 Z" id="形状" fill="#09244B"></path>
            </g>
        </g>
    </g>
</svg>

<svg xmlns="http://www.w3.org/2000/svg" width="24" height="24"><g fill="none" fill-rule="evenodd"><path d="M24 0v24H0V0h24ZM12.593 23.258l-.011.002-.071.035-.02.004-.014-.004-.071-.035c-.01-.004-.019-.001-.024.005l-.004.01-.017.428.005.02.01.013.104.074.015.004.012-.004.104-.074.012-.016.004-.017-.017-.427c-.002-.01-.009-.017-.017-.018Zm.265-.113-.013.002-.185.093-.01.01-.003.011.018.43.005.012.008.007.201.093c.012.004.023 0 .029-.008l.004-.014-.034-.614c-.003-.012-.01-.02-.02-.022Zm-.715.002a.023.023 0 0 0-.027.006l-.006.014-.034.614c0 .012.007.02.017.024l.015-.002.201-.093.01-.008.004-.011.017-.43-.003-.012-.01-.01-.184-.092Z"/><path fill="#09244B" d="M10 4.5c.329 0 .62.159.803.404l.063.096h4.268a1 1 0 0 1 .745-.493L16 4.5h3c.329 0 .62.159.803.404l.063.096H21a2 2 0 0 1 1.995 1.85L23 7v1a2 2 0 0 1-1.85 1.995L21 10v8a1 1 0 0 1 .117 1.993L21 20H4a1 1 0 0 1-.117-1.993L4 18h.544a6.737 6.737 0 0 0 1.442-3.71L6 14V9.936a10.218 10.218 0 0 1-1.787-.353c-.697-.209-1.478-.545-2.1-1.105C1.46 7.892 1 7.07 1 6a1 1 0 0 1 .883-.993L2 5h4.134a1 1 0 0 1 .745-.493L7 4.5h3Zm5 5.5h-3v8h1.544A6.733 6.733 0 0 0 15 14v-4Zm4 5h-2.064a8.3 8.3 0 0 1-.836 2.69l-.164.31H19v-3Zm-9 0H7.936a8.393 8.393 0 0 1-1 3H10v-3Zm9-5h-2v3h2v-3Zm-9 0H8v3h2v-3Zm-.866-3.5H7.866a1 1 0 0 1-.745.493L7 7H3.46c.84.745 2.196.962 3.307.995L7 8H21V7h-2a.999.999 0 0 1-.803-.404l-.063-.096h-1.268a1 1 0 0 1-.745.493L16 7h-6a.999.999 0 0 1-.803-.404L9.134 6.5Z"/></g></svg>
